X: 24
T: MAIDENS
C: Andrew Rankine
R: jig
B: "The Complete Andrew Rankine Collection of Scottish Country Dance Tunes" p.29
Z: 2017 John Chambers <jc:trillian.mit.edu>
M: 6/8
L: 1/8
K: D
|:\
"D"DFA dcB | d3- d2c/B/ |\
DFA dcB | "A7"G3- G2E/D/ |\
CEG cBA | c3- c2B |
[1 A^GA BA=G | "D"F3- "A7"F2E :|\
[2 A^GA cAe | "D"d3- "D7"d2=c |:\
"G"BGB dBe | d3- d2c/B/ |\
"D"AFA dAf |
d3- d2c/B/ |\
"A"cAc ece | "A7"g3- gec |\
[1 "D"dAd fdf | a3- "D7"a2=c :|\
[2 "D"dAd "A7"edc | "D"d3- d3 |]

%%sep 1 1 500

